X:55
T: For Better or For Worse
C: BB
R: reel
Q: 1/8=350
M: 4/4
L: 1/8
K: D
D|"D"FAdA "Bm"B2 Bc|"D"dBAF "G"GFED|"D"FAdA "Bm"B2 Bc|"D"dfaf "G"gBdB |
"D"FAdA "Bm"Bcde|"D"faba "A7"gece|"D"fd (3ded "F#m"cAAc|"G"dB"A"AG "D"FD D :|
A|"A"(3cBA eA (3cBA eA|"D"fddc dAFA|"A"(3cBA eA (3cBA eA|"D"faaf a3 e |
"A"cAeA cAeA|"D"fddc dAFD|"G"GB (3BAB "A"Acec|"G"dB"A"AG "D"FD D :|
